X: 01061
T: JUNIE'S JIG
C: Bob McQuillen Mar'76
B: Bob's Note Book 1 #61
R: jig
Z: 2019 John Chambers <jc:trillian.mit.edu>
M: 6/8
L: 1/8
K: G	% and Em
D \
| GAB ABc | ded def | geg dBG | ABG FED |\
| GAB ABc | ded def | geg dBG | AGF G2 :|
|: B, \
| EFG FGA | GAB cBA | Bcd edc | BcB AGF |\
| EFG FGA | Bcd edc | BcB ABA | GEE E2 :|
%%begintext align
%% For June Ludlum
%% with many thanks!
%%endtext

%%sep 1 1 500

%%sep 1 1 500

